X:1
T:Drowsy Maggie (reel)
R:reel
M:4/4
O:Trad. (9.4.2014/NS)
L:1/8
K:Edor
|:"Em"E2BE dEBE|E2BE AFDF|E2BE dEBE|"D"BABc dAFD:|
"D"d2fd "A"c2ec|"D"defg afge|"D"d2fd "A"c2ec|"G"BABc dAFA|
"D"d2fd "A"c2ec|"D"defg afge|"D"a/g/fge "A/C#"fdec|"Bm"BABc "D"dAFD|
